elementary-add/apps/48/codeblocks.svg

<?xml version="1.0" encoding="UTF-8" standalone="no"?>
<!-- Created with Inkscape (http://www.inkscape.org/) -->

<svg
   xmlns:dc="http://purl.org/dc/elements/1.1/"
   xmlns:cc="http://creativecommons.org/ns#"
   xmlns:rdf="http://www.w3.org/1999/02/22-rdf-syntax-ns#"
   xmlns:svg="http://www.w3.org/2000/svg"
   xmlns="http://www.w3.org/2000/svg"
   xmlns:xlink="http://www.w3.org/1999/xlink"
   xmlns:sodipodi="http://sodipodi.sourceforge.net/DTD/sodipodi-0.dtd"
   xmlns:inkscape="http://www.inkscape.org/namespaces/inkscape"
   version="1.1"
   width="48"
   height="48"
   id="svg3143"
   inkscape:version="0.91 r"
   sodipodi:docname="codeblocks.svg">
  <sodipodi:namedview
     pagecolor="#ffffff"
     bordercolor="#666666"
     borderopacity="1"
     objecttolerance="10"
     gridtolerance="10"
     guidetolerance="10"
     inkscape:pageopacity="0"
     inkscape:pageshadow="2"
     inkscape:window-width="1600"
     inkscape:window-height="845"
     id="namedview46"
     showgrid="false"
     inkscape:zoom="1"
     inkscape:cx="1.4850405"
     inkscape:cy="21.840481"
     inkscape:window-x="0"
     inkscape:window-y="30"
     inkscape:window-maximized="1"
     inkscape:current-layer="svg3143" />
  <defs
     id="defs3145">
    <linearGradient
       x1="23.99999"
       y1="4.999989"
       x2="23.99999"
       y2="43"
       id="linearGradient4181"
       xlink:href="#linearGradient3924-3"
       gradientUnits="userSpaceOnUse"
       gradientTransform="translate(5.3e-6,1.0000015)" />
    <linearGradient
       id="linearGradient3924-3">
      <stop
         id="stop3926-7"
         style="stop-color:#ffffff;stop-opacity:1"
         offset="0" />
      <stop
         id="stop3928-3"
         style="stop-color:#ffffff;stop-opacity:0.23529412"
         offset="0.06316455" />
      <stop
         id="stop3930-7"
         style="stop-color:#ffffff;stop-opacity:0.15686275"
         offset="0.95056331" />
      <stop
         id="stop3932-1"
         style="stop-color:#ffffff;stop-opacity:0.39215687"
         offset="1" />
    </linearGradient>
    <linearGradient
       x1="167.98311"
       y1="8.50811"
       x2="167.98311"
       y2="54.780239"
       id="linearGradient4907-4"
       xlink:href="#linearGradient5803-2-7"
       gradientUnits="userSpaceOnUse"
       gradientTransform="matrix(0.7037037,0,0,0.7037037,-39.333369,2.4814295)" />
    <linearGradient
       id="linearGradient5803-2-7">
      <stop
         id="stop5805-3-6"
         style="stop-color:#fffdf3;stop-opacity:1"
         offset="0" />
      <stop
         id="stop5807-0-0"
         style="stop-color:#fbebeb;stop-opacity:1"
         offset="1" />
    </linearGradient>
    <radialGradient
       cx="8.276144"
       cy="9.9941158"
       r="12.671875"
       fx="8.276144"
       fy="9.9941158"
       id="radialGradient6305"
       xlink:href="#linearGradient3242"
       gradientUnits="userSpaceOnUse"
       gradientTransform="matrix(0,6.6677582,-8.1858766,0,105.8829,-59.462774)" />
    <linearGradient
       id="linearGradient3242">
      <stop
         id="stop3244"
         style="stop-color:#f89b7e;stop-opacity:1"
         offset="0" />
      <stop
         id="stop3246"
         style="stop-color:#e35d4f;stop-opacity:1"
         offset="0.26238" />
      <stop
         id="stop3248"
         style="stop-color:#c6262e;stop-opacity:1"
         offset="0.66093999" />
      <stop
         id="stop3250"
         style="stop-color:#690b2c;stop-opacity:1"
         offset="1" />
    </linearGradient>
    <radialGradient
       cx="4.9929786"
       cy="43.5"
       r="2.5"
       fx="4.9929786"
       fy="43.5"
       id="radialGradient3013"
       xlink:href="#linearGradient3688-166-749"
       gradientUnits="userSpaceOnUse"
       gradientTransform="matrix(2.003784,0,0,1.4,27.98813,-17.4)" />
    <linearGradient
       id="linearGradient3688-166-749">
      <stop
         id="stop2883"
         style="stop-color:#181818;stop-opacity:1"
         offset="0" />
      <stop
         id="stop2885"
         style="stop-color:#181818;stop-opacity:0"
         offset="1" />
    </linearGradient>
    <radialGradient
       cx="4.9929786"
       cy="43.5"
       r="2.5"
       fx="4.9929786"
       fy="43.5"
       id="radialGradient3015"
       xlink:href="#linearGradient3688-464-309"
       gradientUnits="userSpaceOnUse"
       gradientTransform="matrix(2.003784,0,0,1.4,-20.01187,-104.4)" />
    <linearGradient
       id="linearGradient3688-464-309">
      <stop
         id="stop2889"
         style="stop-color:#181818;stop-opacity:1"
         offset="0" />
      <stop
         id="stop2891"
         style="stop-color:#181818;stop-opacity:0"
         offset="1" />
    </linearGradient>
    <linearGradient
       id="linearGradient3702-501-757">
      <stop
         id="stop2895"
         style="stop-color:#181818;stop-opacity:0"
         offset="0" />
      <stop
         id="stop2897"
         style="stop-color:#181818;stop-opacity:1"
         offset="0.5" />
      <stop
         id="stop2899"
         style="stop-color:#181818;stop-opacity:0"
         offset="1" />
    </linearGradient>
    <linearGradient
       x1="25.058096"
       y1="47.027729"
       x2="25.058096"
       y2="39.999443"
       id="linearGradient3141"
       xlink:href="#linearGradient3702-501-757"
       gradientUnits="userSpaceOnUse" />
    <radialGradient
       inkscape:collect="always"
       xlink:href="#linearGradient3688-166-749"
       id="radialGradient3030"
       gradientUnits="userSpaceOnUse"
       gradientTransform="matrix(2.003784,0,0,1.4,27.98813,-17.4)"
       cx="4.9929786"
       cy="43.5"
       fx="4.9929786"
       fy="43.5"
       r="2.5" />
    <radialGradient
       inkscape:collect="always"
       xlink:href="#linearGradient3688-464-309"
       id="radialGradient3032"
       gradientUnits="userSpaceOnUse"
       gradientTransform="matrix(2.003784,0,0,1.4,-20.01187,-104.4)"
       cx="4.9929786"
       cy="43.5"
       fx="4.9929786"
       fy="43.5"
       r="2.5" />
    <linearGradient
       inkscape:collect="always"
       xlink:href="#linearGradient3702-501-757"
       id="linearGradient3034"
       gradientUnits="userSpaceOnUse"
       x1="25.058096"
       y1="47.027729"
       x2="25.058096"
       y2="39.999443" />
    <radialGradient
       inkscape:collect="always"
       xlink:href="#linearGradient3242"
       id="radialGradient3036"
       gradientUnits="userSpaceOnUse"
       gradientTransform="matrix(0,6.6677582,-8.1858766,0,105.8829,-59.462774)"
       cx="8.276144"
       cy="9.9941158"
       fx="8.276144"
       fy="9.9941158"
       r="12.671875" />
    <linearGradient
       inkscape:collect="always"
       xlink:href="#linearGradient5803-2-7"
       id="linearGradient3038"
       gradientUnits="userSpaceOnUse"
       gradientTransform="matrix(0.7037037,0,0,0.7037037,-39.333369,2.4814295)"
       x1="167.98311"
       y1="8.50811"
       x2="167.98311"
       y2="54.780239" />
    <linearGradient
       inkscape:collect="always"
       xlink:href="#linearGradient3924-3"
       id="linearGradient3040"
       gradientUnits="userSpaceOnUse"
       gradientTransform="translate(5.3e-6,1.0000015)"
       x1="23.99999"
       y1="4.999989"
       x2="23.99999"
       y2="43" />
    <linearGradient
       inkscape:collect="always"
       xlink:href="#linearGradient3924-3"
       id="linearGradient3044"
       gradientUnits="userSpaceOnUse"
       gradientTransform="translate(5.3e-6,1.0000015)"
       x1="23.99999"
       y1="4.999989"
       x2="23.99999"
       y2="43" />
    <linearGradient
       inkscape:collect="always"
       xlink:href="#linearGradient5803-2-7"
       id="linearGradient3048"
       gradientUnits="userSpaceOnUse"
       gradientTransform="matrix(0.7037037,0,0,0.7037037,-39.333369,2.4814295)"
       x1="167.98311"
       y1="8.50811"
       x2="167.98311"
       y2="54.780239" />
  </defs>
  <metadata
     id="metadata3148">
    <rdf:RDF>
      <cc:Work
         rdf:about="">
        <dc:format>image/svg+xml</dc:format>
        <dc:type
           rdf:resource="http://purl.org/dc/dcmitype/StillImage" />
        <dc:title />
      </cc:Work>
    </rdf:RDF>
  </metadata>
  <g
     style="opacity:0.6"
     id="g3712-5"
     transform="matrix(1.1578952,0,0,0.6428571,-3.789476,16.035716)">
    <rect
       style="fill:url(#radialGradient3030);fill-opacity:1;stroke:none"
       id="rect2801-3"
       y="40"
       x="38"
       height="7"
       width="5" />
    <rect
       style="fill:url(#radialGradient3032);fill-opacity:1;stroke:none"
       id="rect3696-6"
       transform="scale(-1,-1)"
       y="-47"
       x="-10"
       height="7"
       width="5" />
    <rect
       style="fill:url(#linearGradient3034);fill-opacity:1;stroke:none"
       id="rect3700-4"
       y="40"
       x="10"
       height="7.0000005"
       width="28" />
  </g>
  <rect
     width="39"
     height="39"
     rx="2"
     ry="2"
     x="4.5"
     y="5.5"
     id="rect4180"
     style="color:#000000;display:inline;overflow:visible;visibility:visible;fill:#4c4c4c;fill-opacity:1;fill-rule:nonzero;stroke:none;stroke-width:0.99999994;marker:none;enable-background:accumulate" />
  <path
     style="color:#000000;display:inline;overflow:visible;visibility:visible;fill:#e35d4f;fill-opacity:1;fill-rule:nonzero;stroke:none;stroke-width:0.99999994;marker:none;enable-background:accumulate"
     d="M 6.4293205,5.5 C 5.3604772,5.5 4.5,6.3685265 4.5,7.4473685 L 4.5,24 23,24 23,5.5 6.4293205,5.5 Z"
     id="path4199"
     inkscape:connector-curvature="0" />
  <path
     style="color:#000000;display:inline;overflow:visible;visibility:visible;fill:#3c9d35;fill-opacity:1;fill-rule:nonzero;stroke:none;stroke-width:0.99999994;marker:none;enable-background:accumulate"
     d="m 25,5.5 0,18.5 18.5,0 0,-16.5526315 C 43.5,6.3685265 42.631475,5.5 41.55263,5.5 L 25,5.5 Z"
     id="path4197"
     inkscape:connector-curvature="0" />
  <path
     style="color:#000000;display:inline;overflow:visible;visibility:visible;fill:#d0aa2d;fill-opacity:1;fill-rule:nonzero;stroke:none;stroke-width:0.99999994;marker:none;enable-background:accumulate"
     d="m 4.5,26 0,16.57068 C 4.5,43.639522 5.3604772,44.5 6.4293205,44.5 L 23,44.5 23,26 4.5,26 Z"
     id="path4195"
     inkscape:connector-curvature="0" />
  <path
     style="color:#000000;display:inline;overflow:visible;visibility:visible;fill:#6b5ca1;fill-opacity:1;fill-rule:nonzero;stroke:none;stroke-width:0.99999994;marker:none;enable-background:accumulate"
     d="m 25,26 0,18.5 16.55263,0 C 42.631475,44.5 43.5,43.639522 43.5,42.57068 L 43.5,26 25,26 Z"
     id="rect5505-21"
     inkscape:connector-curvature="0" />
  <rect
     style="opacity:0.5;fill:none;stroke:url(#linearGradient3044);stroke-width:1;stroke-linecap:round;stroke-linejoin:round;stroke-miterlimit:4;stroke-opacity:1;stroke-dasharray:none;stroke-dashoffset:0"
     id="rect6741-2"
     y="6.4999924"
     x="5.5"
     ry="1"
     rx="1"
     height="37"
     width="37" />
  <rect
     style="opacity:0.35;color:#000000;fill:none;stroke:#410000;stroke-width:1;stroke-linecap:round;stroke-linejoin:round;stroke-miterlimit:4;stroke-opacity:1;stroke-dasharray:none;stroke-dashoffset:0;marker:none;visibility:visible;display:inline;overflow:visible;enable-background:accumulate"
     id="rect5505-21-1"
     y="5.5"
     x="4.5"
     ry="2"
     rx="2"
     height="39"
     width="39" />
</svg>

<?xml version="1.0" encoding="UTF-8" standalone="no"?>
<!-- Created with Inkscape (http://www.inkscape.org/) -->
<svg id="svg3143" xmlns:rdf="http://www.w3.org/1999/02/22-rdf-syntax-ns#" xmlns="http://www.w3.org/2000/svg" height="48" width="48" version="1.1" xmlns:cc="http://creativecommons.org/ns#" xmlns:xlink="http://www.w3.org/1999/xlink" xmlns:dc="http://purl.org/dc/elements/1.1/">
 <defs id="defs3145">
  <radialGradient id="radialGradient3030" gradientUnits="userSpaceOnUse" cy="43.5" cx="4.993" gradientTransform="matrix(2.0038 0 0 1.4 27.988 -17.4)" r="2.5">
   <stop id="stop2883" stop-color="#181818" offset="0"/>
   <stop id="stop2885" stop-color="#181818" stop-opacity="0" offset="1"/>
  </radialGradient>
  <radialGradient id="radialGradient3032" gradientUnits="userSpaceOnUse" cy="43.5" cx="4.993" gradientTransform="matrix(2.0038 0 0 1.4 -20.012 -104.4)" r="2.5">
   <stop id="stop2889" stop-color="#181818" offset="0"/>
   <stop id="stop2891" stop-color="#181818" stop-opacity="0" offset="1"/>
  </radialGradient>
  <linearGradient id="linearGradient3034" y2="39.999" gradientUnits="userSpaceOnUse" x2="25.058" y1="47.028" x1="25.058">
   <stop id="stop2895" stop-color="#181818" stop-opacity="0" offset="0"/>
   <stop id="stop2897" stop-color="#181818" offset=".5"/>
   <stop id="stop2899" stop-color="#181818" stop-opacity="0" offset="1"/>
  </linearGradient>
  <linearGradient id="linearGradient3044" y2="43" gradientUnits="userSpaceOnUse" x2="24" gradientTransform="translate(.0000053 1)" y1="5" x1="24">
   <stop id="stop3926-7" stop-color="#fff" offset="0"/>
   <stop id="stop3928-3" stop-color="#fff" stop-opacity=".23529" offset=".063165"/>
   <stop id="stop3930-7" stop-color="#fff" stop-opacity=".15686" offset=".95056"/>
   <stop id="stop3932-1" stop-color="#fff" stop-opacity=".39216" offset="1"/>
  </linearGradient>
 </defs>
 <metadata id="metadata3148">
  <rdf:RDF>
   <cc:Work rdf:about="">
    <dc:format>image/svg+xml</dc:format>
    <dc:type rdf:resource="http://purl.org/dc/dcmitype/StillImage"/>
    <dc:title/>
   </cc:Work>
  </rdf:RDF>
 </metadata>
 <g id="g3712-5" opacity=".6" transform="matrix(1.1579 0 0 .64286 -3.7895 16.036)">
  <rect id="rect2801-3" height="7" width="5" y="40" x="38" fill="url(#radialGradient3030)"/>
  <rect id="rect3696-6" transform="scale(-1)" height="7" width="5" y="-47" x="-10" fill="url(#radialGradient3032)"/>
  <rect id="rect3700-4" height="7" width="28" y="40" x="10" fill="url(#linearGradient3034)"/>
 </g>
 <rect id="rect4180" style="color:#000000" rx="2" ry="2" height="39" width="39" y="5.5" x="4.5" fill="#4c4c4c"/>
 <path id="path4199" style="color:#000000" d="m6.4293 5.5c-1.0688 0-1.9293 0.8685-1.9293 1.9474v16.553h18.5v-18.5h-16.571z" fill="#e35d4f"/>
 <path id="path4197" style="color:#000000" d="m25 5.5v18.5h18.5v-16.553c0-1.0785-0.869-1.947-1.947-1.947h-16.553z" fill="#3c9d35"/>
 <path id="path4195" style="color:#000000" d="m4.5 26v16.571c0 1.069 0.8605 1.929 1.9293 1.929h16.571v-18.5h-18.5z" fill="#d0aa2d"/>
 <path id="rect5505-21" style="color:#000000" d="m25 26v18.5h16.553c1.078 0 1.947-0.86 1.947-1.929v-16.571h-18.5z" fill="#6b5ca1"/>
 <rect id="rect6741-2" opacity=".5" stroke-linejoin="round" rx="1" ry="1" height="37" width="37" stroke="url(#linearGradient3044)" stroke-linecap="round" y="6.5" x="5.5" fill="none"/>
 <rect id="rect5505-21-1" opacity=".35" stroke-linejoin="round" style="color:#000000" rx="2" ry="2" height="39" width="39" stroke="#410000" stroke-linecap="round" y="5.5" x="4.5" fill="none"/>
</svg>
